X:1
T:Title
%%score { ( 1 3 ) | 2 }
L:1/8
M:4/4
K:F
V:1 treble nm="Grand Piano"
V:3 treble 
V:2 bass 
V:1
 z4 z2[Q:1/4=94] FG | AA A>B AGFA | cc c>d c2 [GB][FA] | %3
 [EG][EG] [EG]>[EG] [B,EG][B,EG] [A,F]>[CEG] | [FA]6 z2 | c>=B cd cFfe | %6
[M:9/8] [Fe]>[Fd][Fd] [Fd] [Fd]2- [Fd][Fd][Fd] |[M:4/4] [Fc][FA]F[FG] [FA]<[GB] [FA]>[EG] | %8
[M:3/4] F6 |[M:1/4] cc |[M:4/4] [Ec][EG] [EG]>[EG] [B,EG]<[B,EG] [A,F]>[CEG] | [FA]6 z2 | %12
 [Ec]<[EG] [EG]>[EG] [B,EG][B,EG] [A,F]>[CFG] | A6 z2 | FFGA BAGF | [FB][FB] [Fd]>[Fd] c2 F>[FG] | %16
 [FA]/[FA]/[FA] [DFB]>[CFA] [CEA]<[B,EG] [CEA]>[B,EG] |[M:3/4] F6 |] %18
V:2
 z4 z2 [F,A,][F,B,F] | [F,CF][F,CF] [F,CF]>[F,DF] [F,CF][F,B,E][F,A,][F,CF] | %2
 [F,A,F][F,A,F] [F,A,F]>[F,B,F] [F,A,F]2 [F,B,][F,C] | [C,C][C,C] [C,C]>[C,C] C,C, C,>C, | %4
 F,2 F,>F, F,2 [F,F][F,G,F] | [F,A,F]>[F,_A,F] [F,=A,F][F,A,F] [F,A,F][F,A,][F,A,F][F,A,F] | %6
[M:9/8] [B,,B,]>[B,,B,][B,,B,] [B,,B,] [B,,B,]2- [B,,B,][B,,B,][B,,B,] | %7
[M:4/4] [C,A,][C,C][D,=B,][^C,B,] [=C,C]<[C,C] [C,C]>[C,_B,] | %8
[M:3/4] [F,A,]2 [F,B,]>[F,B,] [F,A,]2 |[M:1/4] [F,A,F][F,A,F] | %10
[M:4/4] [C,G,][C,C] [C,C]>[C,C] C,<C, C,>C, | F,<F, F,>F, F,2 [F,A,F][F,A,F] | %12
 [C,G,]<[C,C] [C,C]>[C,C] C,C, C,>C, | [F,CF]>[G,C] [F,C][F,C] [F,C]2 [F,CF][F,B,E] | %14
 [F,A,][F,A,C][F,B,C][F,CF] [F,DF][F,CF][F,B,F][F,A,] | %15
 [D,B,][D,B,] [B,,B,]>[B,,B,] [F,A,F]2 [D,=B,]>[D,B,] | [C,C]/[C,C]/[C,C] C,>C, C,<C, C,>C, | %17
[M:3/4] [F,A,]2 [B,,B,][D,B,] [F,A,]2 |] %18
V:3
 x8 | x8 | x8 | x8 | C2 C>C C2 AB | x8 |[M:9/8] x9 |[M:4/4] x8 |[M:3/4] z2 D>D C2 |[M:1/4] x2 | %10
[M:4/4] x8 | C<C C>C C2 cc | x8 | z z/ F/ FF F2 AG | x8 | x8 | x8 |[M:3/4] z2 DD C2 |] %18

